images/icon/vk-footer.svg

<svg width="25" height="24" viewBox="0 0 25 24" fill="none" xmlns="http://www.w3.org/2000/svg">
<path d="M12.9933 0C6.36578 0 0.993286 5.37249 0.993286 12C0.993286 18.6275 6.36578 24 12.9933 24C19.6208 24 24.9932 18.6275 24.9932 12C24.9932 5.37249 19.6208 0 12.9933 0ZM17.6083 13.5387C17.6083 13.5387 18.6695 14.5862 18.9308 15.0725C18.9383 15.0825 18.942 15.0925 18.9445 15.0975C19.0508 15.2762 19.0758 15.415 19.0233 15.5187C18.9358 15.6912 18.6358 15.7762 18.5333 15.7837H16.6583C16.5283 15.7837 16.2558 15.75 15.9258 15.5225C15.672 15.345 15.422 15.0537 15.1783 14.77C14.8145 14.3475 14.4995 13.9825 14.182 13.9825C14.1417 13.9824 14.1016 13.9887 14.0633 14.0012C13.8233 14.0787 13.5158 14.4212 13.5158 15.3337C13.5158 15.6187 13.2908 15.7825 13.132 15.7825H12.2733C11.9808 15.7825 10.457 15.68 9.10702 14.2562C7.45453 12.5125 5.96703 9.01499 5.95453 8.98248C5.86078 8.75624 6.05453 8.63499 6.26578 8.63499H8.15952C8.41202 8.63499 8.49452 8.78874 8.55202 8.92498C8.61952 9.08374 8.86702 9.71498 9.27327 10.425C9.93202 11.5825 10.3358 12.0525 10.6595 12.0525C10.7202 12.0518 10.7799 12.0363 10.8333 12.0075C11.2558 11.7725 11.177 10.2662 11.1583 9.95373C11.1583 9.89498 11.157 9.27998 10.9408 8.98499C10.7858 8.77124 10.522 8.68999 10.362 8.65999C10.4268 8.57063 10.5121 8.49817 10.6108 8.44874C10.9008 8.30374 11.4233 8.28249 11.942 8.28249H12.2308C12.7933 8.28999 12.9383 8.32624 13.142 8.37749C13.5545 8.47624 13.5633 8.74249 13.527 9.65373C13.5158 9.91248 13.5045 10.205 13.5045 10.55C13.5045 10.625 13.5008 10.705 13.5008 10.79C13.4883 11.2537 13.4733 11.78 13.8008 11.9962C13.8435 12.023 13.8928 12.0373 13.9433 12.0375C14.057 12.0375 14.3995 12.0375 15.327 10.4462C15.6131 9.93406 15.8616 9.40183 16.0708 8.85373C16.0895 8.82124 16.1445 8.72124 16.2095 8.68249C16.2575 8.65803 16.3107 8.64559 16.3645 8.64624H18.5908C18.8333 8.64624 18.9995 8.68249 19.0308 8.77624C19.0858 8.92499 19.0208 9.37873 18.0045 10.755L17.5508 11.3537C16.6295 12.5612 16.6295 12.6225 17.6083 13.5387Z" fill="#9FB7D3"/>
</svg>

<svg width="25" height="24" fill="none" xmlns="http://www.w3.org/2000/svg"><path d="M12.993 0c-6.627 0-12 5.372-12 12s5.373 12 12 12c6.628 0 12-5.372 12-12s-5.372-12-12-12zm4.615 13.539s1.061 1.047 1.323 1.534c.007.01.011.02.014.024.106.18.13.318.078.422-.087.172-.387.257-.49.265h-1.875c-.13 0-.402-.034-.732-.261-.254-.178-.504-.47-.748-.753-.364-.422-.679-.787-.996-.787a.38.38 0 00-.119.018c-.24.078-.547.42-.547 1.333 0 .285-.225.449-.384.449h-.859c-.292 0-1.816-.103-3.166-1.527-1.652-1.744-3.14-5.241-3.152-5.274-.094-.226.1-.347.31-.347H8.16c.252 0 .335.154.392.29.068.159.315.79.721 1.5.659 1.157 1.063 1.627 1.386 1.627.061 0 .12-.016.174-.044.423-.235.344-1.742.325-2.054 0-.059-.001-.674-.217-.969-.155-.214-.419-.295-.579-.325a.688.688 0 01.249-.211c.29-.145.812-.167 1.331-.167h.289c.562.008.707.044.911.095.413.1.421.365.385 1.277-.011.258-.022.551-.022.896 0 .075-.004.155-.004.24-.013.464-.028.99.3 1.206a.27.27 0 00.142.041c.114 0 .457 0 1.384-1.59.286-.513.535-1.045.744-1.593a.492.492 0 01.138-.172.333.333 0 01.155-.036h2.227c.242 0 .409.036.44.13.055.149-.01.603-1.026 1.979l-.454.599c-.921 1.207-.921 1.269.057 2.185z" fill="#9FB7D3"/></svg>
